!!!!SEGMENT: pl-gd--ee-1638--007-006_marenzio-luca--il-terzo-libro-de-madrigalia-a-sei-voci-in-un-lucidorio.krn
!!!cenid: 15xx:847
!!!COM: Marenzio, Luca
!!!COM-rismid: pe30003955
!!!CDT: ~1553-1599/08/22
!!!CNT: Italian
!!!GTL: Il Terzo Libro de madrigalia a sei voci
!!!OTL: In un lucidorio
!!!OMV: 006
!!!PDT: 1585
!!!AGN:
!!!SMS-siglum: PL-GD
!!!SMS-shelfmark: Ee 1638
!!!SMS-variant:
!!!SMS-altvar:
!!!SMS-shelfwork: 007-006 G
!!!NIFC-rismid: 990039250
!!!URL-scan: https://repozytorium.nifc.pl/islandora/object/pl-gd%3A57883/datastream/PDF/view
!!!ONB-nifc: UWAGA: zbiór na stronach: Canto: s. 694-704, Alto: s. 542-552, Tenore: s. 390-400, Basso: s. 237-248, Quinto: s. 85-96, Sesto: s. 3-14. Uwaga: utwory podzielone wg tytułów w spisach treści dostępnych na końcu każdej księgi głosowej.
!!!Key: c:ion
**kern	**text	**kern	**text	**kern	**text	**kern	**text	**kern	**text	**kern	**text
*part6	*part6	*part5	*part5	*part4	*part4	*part3	*part3	*part2	*part2	*part1	*part1
*staff6	*staff6	*staff5	*staff5	*staff4	*staff4	*staff3	*staff3	*staff2	*staff2	*staff1	*staff1
*I"BASSO	*	*I"TENORE	*	*I"SESTO	*	*I"QVINTO	*	*I"ALTO	*	*I"CANTO	*
*I'B.	*	*I'T.	*	*I'S.	*	*I'V.	*	*I'A.	*	*I'C.	*
*Ibass	*	*Itenor	*	*Itenor	*	*Ialto	*	*Ialto	*	*Isoprn	*
*ICvox	*	*ICvox	*	*ICvox	*	*ICvox	*	*Cvox	*	*ICvox	*
*clefF4	*	*clefC4	*	*clefC4	*	*clefC3	*	*clefC3	*	*clefC1	*
*k[]	*	*k[]	*	*k[]	*	*k[]	*	*k[]	*	*k[]	*
*C:	*	*C:	*	*C:	*	*C:	*	*C:	*	*C:	*
*M4/4	*	*M4/4	*	*M4/4	*	*M4/4	*	*M4/4	*	*M4/4	*
*met(c)	*	*met(c)	*	*met(c)	*	*met(c)	*	*met(c)	*	*met(c)	*
=1-	=1-	=1-	=1-	=1-	=1-	=1-	=1-	=1-	=1-	=1-	=1-
!LO:TX:b:t=In un lucido	!	!LO:TX:b:t=In un lucido	!	!LO:TX:b:t=In un lucido	!	!	!	!	!	!	!
!LO:TX:t=P:problem:Skan 241	!	!LO:TX:t=P:problem:Skan 393	!	!LO:TX:t=P:problem:Skan 7	!	!LO:TX:t=P:problem:Skan 89	!	!LO:TX:t=P:problem:Skan 545	!	!LO:TX:t=P:problem:Skan 697	!
00r	.	00rr	.	00r	.	2r	.	1c	In	0r	.
.	.	.	.	.	.	1c\	In	.	.	.	.
=2-	=2-	=2-	=2-	=2-	=2-	=2-	=2-	=2-	=2-	=2-	=2-
.	.	.	.	.	.	.	un	1d	un	.	.
.	.	.	.	.	.	2B/	lu-	.	.	.	.
=3-	=3-	=3-	=3-	=3-	=3-	=3-	=3-	=3-	=3-	=3-	=3-
.	.	.	.	.	.	4.c/	-ci-	4.e\	lu-	0g	In
.	.	.	.	.	.	8c/	-do-	8e\	-ci-	.	.
.	.	.	.	.	.	4c/	-ri-	4e\	-do-	.	.
.	.	.	.	.	.	4.e\	.	4.c/	-ri-	.	.
=4-	=4-	=4-	=4-	=4-	=4-	=4-	=4-	=4-	=4-	=4-	=4-
.	.	.	.	.	.	.	.	.	.	.	.
.	.	.	.	.	.	8f\	.	8d\	.	.	.
.	.	.	.	.	.	8g\	.	4.e\	.	.	.
.	.	.	.	.	.	8f\	.	.	.	.	.
.	.	.	.	.	.	8e\	.	.	.	.	.
.	.	.	.	.	.	8d\	.	8f\	.	.	.
.	.	.	.	.	.	8c\	.	2g\	.	.	.
.	.	.	.	.	.	8B/	.	.	.	.	.
=5-	=5-	=5-	=5-	=5-	=5-	=5-	=5-	=5-	=5-	=5-	=5-
00r	.	00r	.	00r	.	1A	.	.	.	1a	un
.	.	.	.	.	.	.	.	8f\	.	.	.
.	.	.	.	.	.	.	.	8e\	.	.	.
.	.	.	.	.	.	.	.	2f#X\	.	.	.
=6-	=6-	=6-	=6-	=6-	=6-	=6-	=6-	=6-	=6-	=6-	=6-
.	.	.	.	.	.	4G/	-o	2g\	-o	4.b\	lu-
!	!	!	!	!	!	!LO:SIC:v:t=custos g	!	!	!	!	!
.	.	.	.	.	.	4G/	Mi-	.	.	.	.
.	.	.	.	.	.	.	.	.	.	8b\	-ci-
!	!	!	!	!	!	!LO:LB:g=original	!	!	!	!	!
.	.	.	.	.	.	4.g\	-rand'	4r	.	4b\	-do-
!	!	!	!	!	!	!	!	!LO:SIC:v:t=custos g	!	!	!
.	.	.	.	.	.	.	.	4G/	Mi-	4.g/	-ri
.	.	.	.	.	.	8f\	il	.	.	.	.
=7-	=7-	=7-	=7-	=7-	=7-	=7-	=7-	=7-	=7-	=7-	=7-
!	!	!	!	!	!	!	!	!LO:LB:g=original	!	!	!
.	.	.	.	.	.	8e\	ſuo	4.g\	-rand'	.	.
.	.	.	.	.	.	8f\	bel	.	.	8a\	.
.	.	.	.	.	.	2g\	vi-	.	.	4.b\	.
.	.	.	.	.	.	.	.	8fny\	il	.	.
.	.	.	.	.	.	.	.	4e\	ſuo	.	.
.	.	.	.	.	.	.	.	.	.	8cc\	.
.	.	.	.	.	.	4f#X\	.	4d\	bel	2dd\	.
=8-	=8-	=8-	=8-	=8-	=8-	=8-	=8-	=8-	=8-	=8-	=8-
.	.	.	.	.	.	2g\	-xo	2e\	vi-	.	.
.	.	.	.	.	.	.	.	.	.	8cc#X\	.
.	.	.	.	.	.	.	.	.	.	8b\	.
.	.	.	.	.	.	4r	.	4e\	-xo	2cc#X\	.
.	.	.	.	.	.	4e\	Mi-	4A/	Mi-	.	.
=9-	=9-	=9-	=9-	=9-	=9-	=9-	=9-	=9-	=9-	=9-	=9-
00r	.	00r	.	00r	.	4.fny\	-rand'	4.d\	-rand'	4dd\	.
!	!	!	!	!	!	!	!	!	!	!LO:SIC:v:t=custos dd	!
.	.	.	.	.	.	.	.	.	.	4a\	Mi-
.	.	.	.	.	.	8e\	il	8e\	il	.	.
!	!	!	!	!	!	!	!	!	!	!LO:LB:g=original	!
.	.	.	.	.	.	4d\	ſuo	2f#X\	ſuo	4.dd\	-rand'
.	.	.	.	.	.	4d\	bel	.	.	.	.
.	.	.	.	.	.	.	.	.	.	8ccny\	il
=10-	=10-	=10-	=10-	=10-	=10-	=10-	=10-	=10-	=10-	=10-	=10-
.	.	.	.	.	.	1e	vi-	4g#X\	bel	4b\	ſuo
.	.	.	.	.	.	.	.	2a\	vi-	4a\	bel
.	.	.	.	.	.	.	.	.	.	2b\	vi-
.	.	.	.	.	.	.	.	4g#X\	.	.	.
=11-	=11-	=11-	=11-	=11-	=11-	=11-	=11-	=11-	=11-	=11-	=11-
.	.	.	.	.	.	1A	-ſo	1a	-ſo	2a\	-ſo
.	.	.	.	.	.	.	.	.	.	1e/	Co-
=12-	=12-	=12-	=12-	=12-	=12-	=12-	=12-	=12-	=12-	=12-	=12-
.	.	.	.	.	.	1c	Co-	1A	Co-	.	.
.	.	.	.	.	.	.	.	.	.	1f/	-ſi
=13-	=13-	=13-	=13-	=13-	=13-	=13-	=13-	=13-	=13-	=13-	=13-
00r	.	00r	.	00r	.	2d\	-ſi	2B-X/	-ſi	.	.
.	.	.	.	.	.	2e\	do-	2G/	do-	2g/	do-
=14-	=14-	=14-	=14-	=14-	=14-	=14-	=14-	=14-	=14-	=14-	=14-
.	.	.	.	.	.	1.f	-lea-	1F	-lea-	1.a	-lea-
=15-	=15-	=15-	=15-	=15-	=15-	=15-	=15-	=15-	=15-	=15-	=15-
!	!	!	!	!	!	!	!	!LO:SIC:v:t=custos c	!	!	!
.	.	.	.	.	.	.	.	1c	-ſiun	.	.
!	!	!	!	!	!	!LO:SIC:v:t=custos e	!	!	!	!	!
.	.	.	.	.	.	2e\	-ſiun	.	.	2g/	-ſiun
=16-	=16-	=16-	=16-	=16-	=16-	=16-	=16-	=16-	=16-	=16-	=16-
!	!	!	!	!	!	!	!	!LO:LB:g=original	!	!	!
!	!	!	!	!	!	!LO:LB:g=original	!	!	!	!	!
.	.	.	.	.	.	4.e\	Pa-	4.c/	Pa-	4.g/	pa-
.	.	.	.	.	.	8d\	-ſto-	8G/	-ſto-	8g/	-ſto-
.	.	.	.	.	.	4c/	-rel	4A/	-rel	4f/	-rel
.	.	.	.	.	.	2c/	d' A-	4c/	d' A-	4e/	d' A-
=17-	=17-	=17-	=17-	=17-	=17-	=17-	=17-	=17-	=17-	=17-	=17-
0r	.	0r	.	0r	.	.	.	1G	-mo-	1d	-mo-
.	.	.	.	.	.	8B/	-mo-	.	.	.	.
.	.	.	.	.	.	8A/	.	.	.	.	.
.	.	.	.	.	.	2B/	.	.	.	.	.
=18-	=18-	=18-	=18-	=18-	=18-	=18-	=18-	=18-	=18-	=18-	=18-
.	.	.	.	.	.	1c	-re	1gny	-re	0e	-re
=19-	=19-	=19-	=19-	=19-	=19-	=19-	=19-	=19-	=19-	=19-	=19-
1.C	Mi-	1.G	Mi-	1.c	Mi-	1r	.	2r	.	.	.
.	.	.	.	.	.	.	.	1e\	Mi-	.	.
=20-	=20-	=20-	=20-	=20-	=20-	=20-	=20-	=20-	=20-	=20-	=20-
.	.	.	.	.	.	1r	.	.	.	2r	.
2E\	-ſe-	2G#X/	-ſe-	2B\	-ſe-	.	.	2e\	-ſe-	1ee\	Mi-
=21-	=21-	=21-	=21-	=21-	=21-	=21-	=21-	=21-	=21-	=21-	=21-
0E	-ro	0nyG	-ro	1.B	-ro	1r	.	0e	-ro	.	.
.	.	.	.	.	.	.	.	.	.	2b\	-ſe-
=22-	=22-	=22-	=22-	=22-	=22-	=22-	=22-	=22-	=22-	=22-	=22-
!	!	!	!	!	!	!	!	!	!	!LO:SIC:v:t=custos a	!
.	.	.	.	.	.	1r	.	.	.	1b	-ro
.	.	.	.	2.E/	Mi-	.	.	.	.	.	.
=23-	=23-	=23-	=23-	=23-	=23-	=23-	=23-	=23-	=23-	=23-	=23-
!	!	!	!	!	!	!	!	!	!	!LO:LB:g=original	!
2.AA/	Mi-	2.A/	Mi-	.	.	2.e\	Mi-	2.c#X/	Mi-	2.a\	Mi-
.	.	.	.	4E/	-ſe-	.	.	.	.	.	.
.	.	.	.	2E/	-ro	.	.	.	.	.	.
4AA/	-ſe-	4A/	-ſe-	.	.	4e\	-ſe-	4c#/	-ſe-	4a\	-ſe-
=24-	=24-	=24-	=24-	=24-	=24-	=24-	=24-	=24-	=24-	=24-	=24-
2AA/	-ro	2E/	-ro	1A	per	2e\	-ro	2cny/	-ro	2a\	-ro
1D\	per	2D/	per	.	.	1f#X\	per	1d\	per	1a\	per
=25-	=25-	=25-	=25-	=25-	=25-	=25-	=25-	=25-	=25-	=25-	=25-
.	.	1d	che	2D/	che	.	.	.	.	.	.
2GG/	che	.	.	1G/	an-	2g\	che	2Bny/	che	2b\	che
=26-	=26-	=26-	=26-	=26-	=26-	=26-	=26-	=26-	=26-	=26-	=26-
!	!	!LO:SIC:v:t=custos d	!	!	!	!	!	!	!	!	!
1C	anch'	1e	anch'	.	.	1g	an-	1G	an-	1cc	an-
!	!	!	!	!LO:SIC:v:t=custos d	!	!	!	!	!	!	!
.	.	.	.	2c\	-ch' io	.	.	.	.	.	.
=27-	=27-	=27-	=27-	=27-	=27-	=27-	=27-	=27-	=27-	=27-	=27-
!LO:SIC:v:t=custos G	!	!	!	!	!	!	!	!	!	!	!
!	!	!	!	!LO:LB:g=original	!	!	!	!	!	!	!
!	!	!LO:LB:g=original	!	!	!	!	!	!	!	!	!
1GG	io	2d\	io	2r	.	0g	-ch' io	1B	-ch' io	1b	-ch' io
.	.	4d\	Qua-	4B\	Qua-	.	.	.	.	.	.
.	.	4c\	-ſi	4c\	-ſi	.	.	.	.	.	.
=28-	=28-	=28-	=28-	=28-	=28-	=28-	=28-	=28-	=28-	=28-	=28-
!LO:LB:g=original	!	!	!	!	!	!	!	!	!	!	!
4G\	Qua-	2B\	nuo-	2d\	nuo-	.	.	1r	.	4b\	Qua-
4F\	-ſi	.	.	.	.	.	.	.	.	4a\	-ſi
2E\	nuo-	4c\	-uo	2e\	-uo	.	.	.	.	2g/	nuo-
.	.	4B\	Nar-	.	.	.	.	.	.	.	.
=29-	=29-	=29-	=29-	=29-	=29-	=29-	=29-	=29-	=29-	=29-	=29-
4F\	-uo	8A/	-ci-	2c\	Nar-	0r	.	1r	.	4a\	-uo
.	.	8B\	.	.	.	.	.	.	.	.	.
4E\	Nar-	2c\	.	.	.	.	.	.	.	4g/	Nar-
2D/	-ci-	.	.	2d\	-ci-	.	.	.	.	2f/	-ci-
.	.	4B\	.	.	.	.	.	.	.	.	.
=30-	=30-	=30-	=30-	=30-	=30-	=30-	=30-	=30-	=30-	=30-	=30-
1C	-ſo	1c	-ſo	2G/	-ſo	.	.	2r	.	2e/	-ſi
.	.	.	.	4E/	Qua-	.	.	4G/	Qua-	2ee\	Qua-
!	!	!	!	!	!	!	!	!LO:SIC:v:t=custos b	!	!	!
.	.	.	.	4F/	-ſi	.	.	4A/	-ſi	.	.
=31-	=31-	=31-	=31-	=31-	=31-	=31-	=31-	=31-	=31-	=31-	=31-
!	!	!	!	!	!	!	!	!LO:LB:g=original	!	!	!
00r	.	0r	.	2G/	nuo-	4g\	Qua-	2B/	nuo-	2dd\	-ſi
.	.	.	.	.	.	4fny\	-ſi	.	.	.	.
!	!	!	!	!	!	!LO:SIC:v:t=custos f	!	!	!	!	!
.	.	.	.	2A/	-uo	2e\	nuo-	4c/	-uo	2cc\	nuo-
.	.	.	.	.	.	.	.	4B/	Nar-	.	.
=32-	=32-	=32-	=32-	=32-	=32-	=32-	=32-	=32-	=32-	=32-	=32-
!	!	!	!	!	!	!LO:LB:g=original	!	!	!	!	!
.	.	.	.	2F/	Nar-	4f\	-uo	8A/	-ci-	4cc\	-uo
.	.	.	.	.	.	.	.	8B/	.	.	.
.	.	.	.	.	.	4e\	Nar-	2c/	.	4a\	Nar-
!	!	!	!	!	!	!	!	!	!	!LO:SIC:v:t=custos g	!
.	.	.	.	2G/	-ci-	2d\	-ci-	.	.	2g/	-ci-
.	.	.	.	.	.	.	.	4B/	.	.	.
=33-	=33-	=33-	=33-	=33-	=33-	=33-	=33-	=33-	=33-	=33-	=33-
!	!	!	!	!	!	!	!	!	!	!LO:LB:g=original	!
.	.	4r	.	4C/	-ſo	2e\	-ſo	4c/	-ſo	4g/	-ſo
.	.	4e\	Non	4c\	Non	.	.	4g\	Non	4e/	Non
.	.	4d\	mi	4B\	mi	2r	.	4g\	mi	4g/	mi
.	.	4c\	con-	4A/	con-	.	.	4f#X\	co-	4a\	co-
=34-	=34-	=34-	=34-	=34-	=34-	=34-	=34-	=34-	=34-	=34-	=34-
.	.	2d\	-uer-	2G/	-uer-	1r	.	2g\	-nuer-	2b\	-nuer-
!	!	!	!	!LO:SIC:v:t=custos F	!	!	!	!	!	!	!
.	.	2d\	-to	2G/	-to	.	.	2g\	-to	2b\	-to
=35-	=35-	=35-	=35-	=35-	=35-	=35-	=35-	=35-	=35-	=35-	=35-
!	!	!	!	!LO:LB:g=original	!	!	!	!	!	!	!
00r	.	00r	.	2r	.	2r	.	2r	.	2r	.
.	.	.	.	1F/	La-	1f\	la-	1a\	la-	1cc\	la-
=36-	=36-	=36-	=36-	=36-	=36-	=36-	=36-	=36-	=36-	=36-	=36-
.	.	.	.	.	.	.	.	.	.	.	.
.	.	.	.	2G/	-gri-	1d\	-gri-	1g\	-gri-	1b\	-gri-
=37-	=37-	=37-	=37-	=37-	=37-	=37-	=37-	=37-	=37-	=37-	=37-
.	.	.	.	1E	-man-	.	.	.	.	.	.
.	.	.	.	.	.	1c\	-man-	1e\	-man-	1a\	-man-
=38-	=38-	=38-	=38-	=38-	=38-	=38-	=38-	=38-	=38-	=38-	=38-
.	.	.	.	1E	-d' in	.	.	.	.	.	.
.	.	.	.	.	.	2B/	-d' in	2e\	-d' in	2g#X/	-d' in
=39-	=39-	=39-	=39-	=39-	=39-	=39-	=39-	=39-	=39-	=39-	=39-
1r	.	1r	.	1D	fio-	1d	fio-	1f#X	fio-	1a	fio-
=40-	=40-	=40-	=40-	=40-	=40-	=40-	=40-	=40-	=40-	=40-	=40-
4r	.	4r	.	2D/	-re	1d	-re	2fny\	-re	2a\	-re
!	!	!LO:SIC:v:t=custos B	!	!	!	!	!	!	!	!	!
4D/	Ch' in	4d\	Ch' in	.	.	.	.	.	.	.	.
!	!	!LO:LB:g=original	!	!	!	!	!	!	!	!	!
4.G\	quell-	4.B\	quell-	2r	.	.	.	2r	.	2r	.
8G\	-a	8B\	-a	.	.	.	.	.	.	.	.
=41-	=41-	=41-	=41-	=41-	=41-	=41-	=41-	=41-	=41-	=41-	=41-
4E\	form'	4c\	form'	1r	.	00r	.	2r	.	2r	.
4G\	al-	4B\	al-	.	.	.	.	.	.	.	.
2F#X\	-me-	2A/	-me-	.	.	.	.	4r	.	4r	.
!	!	!	!	!	!	!	!	!LO:SIC:v:t=custos g	!	!	!
.	.	.	.	.	.	.	.	4d\	Ch' in	4dd\	Ch' in
=42-	=42-	=42-	=42-	=42-	=42-	=42-	=42-	=42-	=42-	=42-	=42-
!	!	!	!	!	!	!	!	!LO:LB:g=original	!	!	!
2G\	-no	2d\	-no	1r	.	.	.	4.g\	quell-	4.b\	quell-
.	.	.	.	.	.	.	.	8g\	-a	8b\	-a
2r	.	2r	.	.	.	.	.	4e\	form'	4cc\	form'
.	.	.	.	.	.	.	.	4g\	ak-	4b\	al-
=43-	=43-	=43-	=43-	=43-	=43-	=43-	=43-	=43-	=43-	=43-	=43-
!	!	!	!	!	!	!	!	!	!	!LO:SIC:v:t=custos d	!
4r	.	0r	.	4r	.	.	.	2f#X\	-me-	2a\	-me-
!LO:SIC:v:t=custos G	!	!	!	!	!	!	!	!	!	!	!
4D/	Ch' in	.	.	4d\	Ch' in	.	.	.	.	.	.
!	!	!	!	!	!	!	!	!	!	!LO:LB:g=original	!
!LO:LB:g=original	!	!	!	!	!	!	!	!	!	!	!
4.G\	quell-	.	.	4.B\	quell-	.	.	2g\	-no	2d/	-no
8G\	-a	.	.	8B\	-a	.	.	.	.	.	.
=44-	=44-	=44-	=44-	=44-	=44-	=44-	=44-	=44-	=44-	=44-	=44-
4E\	form'	.	.	4c\	form'	.	.	4r	.	1r	.
4G\	al-	.	.	4B\	al-	.	.	4d\	al-	.	.
2F#X\	-me-	.	.	2A/	-me-	.	.	2d\	-me-	.	.
=45-	=45-	=45-	=45-	=45-	=45-	=45-	=45-	=45-	=45-	=45-	=45-
2G\	-no	4r	.	2B\	-no	4r	.	2d\	-no	4r	.
.	.	4G/	Mi	.	.	4g\	Mi	.	.	4b\	Mi
4r	.	2.c\	ra-	2r	.	2.g\	ra-	2r	.	2.ee\	ra-
4C/	Mi	.	.	.	.	.	.	.	.	.	.
=46-	=46-	=46-	=46-	=46-	=46-	=46-	=46-	=46-	=46-	=46-	=46-
4c\	ra-	.	.	1r	.	.	.	1r	.	.	.
4G\	-cco-	4B\	-cco-	.	.	4g\	-cco-	.	.	4dd\	-cco-
4A\	-rre-	4c\	-rre-	.	.	4e\	-rre-	.	.	4cc\	-rre-
4E\	-bbe	4e\	-bbe	.	.	4g\	-bbe	.	.	4b\	-bbe
=47-	=47-	=47-	=47-	=47-	=47-	=47-	=47-	=47-	=47-	=47-	=47-
2Fny\	la	2c\	la	1r	.	2f\	la-	1r	.	2a\	la
!	!	!	!	!	!	!LO:SIC:v:t=custos d	!	!	!	!	!
4C/	mia	4c\	mia	.	.	4e\	-mia	.	.	4gny/	mia
!	!	!	!	!	!	!LO:LB:g=original	!	!	!	!	!
2G\	Donn'	2B\	Donn'	.	.	2d\	Donn'	.	.	2g/	Donn'
=48-	=48-	=48-	=48-	=48-	=48-	=48-	=48-	=48-	=48-	=48-	=48-
.	.	.	.	1r	.	.	.	1r	.	.	.
4A\	in	4c\	in	.	.	4c/	in	.	.	4f#X/	in
!	!	!LO:SIC:v:t=custos e	!	!	!	!	!	!	!	!	!
2G\	ſe-	2d\	ſe-	.	.	2B/	ſe-	.	.	2g/	ſe-
=49-	=49-	=49-	=49-	=49-	=49-	=49-	=49-	=49-	=49-	=49-	=49-
!	!	!LO:LB:g=original	!	!	!	!	!	!	!	!	!
1C	-no	1e	-no	4r	.	1c	-no	4r	.	1g	-no
.	.	.	.	4G/	Ch' in	.	.	4g\	Ch' in	.	.
.	.	.	.	4.c\	quell-	.	.	4.e\	quell-	.	.
!	!	!	!	!LO:SIC:v:t=custos A	!	!	!	!	!	!	!
.	.	.	.	8c\	-a	.	.	8e\	-a	.	.
=50-	=50-	=50-	=50-	=50-	=50-	=50-	=50-	=50-	=50-	=50-	=50-
!	!	!	!	!LO:LB:g=original	!	!	!	!	!	!	!
2r	.	1r	.	4A/	form'	2r	.	4fny\	form'	1r	.
.	.	.	.	4c\	al-	.	.	4e\	al-	.	.
4r	.	.	.	2B\	-me-	4r	.	2d\	-me-	.	.
!LO:SIC:v:t=custos E	!	!	!	!	!	!	!	!	!	!	!
4G\	Ch' in	.	.	.	.	4G/	Ch' in	.	.	.	.
=51-	=51-	=51-	=51-	=51-	=51-	=51-	=51-	=51-	=51-	=51-	=51-
!	!	!	!	!	!	!	!	!LO:SIC:v:t=custos d	!	!	!
!LO:LB:g=original	!	!	!	!	!	!	!	!	!	!	!
4.E\	quell-	1r	.	2G/	-no	4.c/	quell-	2e\	-no	1r	.
8E\	-a	.	.	.	.	8c/	-a	.	.	.	.
4F\	form'	.	.	2r	.	4A/	form'	2r	.	.	.
4E\	al-	.	.	.	.	4c/	al-	.	.	.	.
=52-	=52-	=52-	=52-	=52-	=52-	=52-	=52-	=52-	=52-	=52-	=52-
!	!	!	!	!	!	!	!	!LO:LB:g=original	!	!	!
2D/	-me-	2r	.	1r	.	2B/	-me-	4r	.	2r	.
.	.	.	.	.	.	.	.	4d\	Mi	.	.
2C/	-no	4r	.	.	.	4c/	-no	4.g\	ra-	4r	.
.	.	4G/	Mi	.	.	4g\	Mi	.	.	4e/	Mi
.	.	.	.	.	.	.	.	8f\	-cco-	.	.
=53-	=53-	=53-	=53-	=53-	=53-	=53-	=53-	=53-	=53-	=53-	=53-
4r	.	4c\	ra-	2r	.	4.g\	ra-	1e	-rre-	4.ee\	ra-
4C/	Mi	4G/	-cco-	.	.	.	.	.	.	.	.
.	.	.	.	.	.	8f\	-cco-	.	.	8dd\	-cco-
4c\	ra-	4A/	-rre-	4r	.	4e\	-rre-	.	.	4cc\	-rre-
4G\	-cco-	4E/	-bbe	4G/	Mi	4g\	-bbe	.	.	4b\	-bbe
=54-	=54-	=54-	=54-	=54-	=54-	=54-	=54-	=54-	=54-	=54-	=54-
4A\	-rre-	4r	.	4c\	ra-	4r	.	2e\	-bbe	4r	.
!	!	!	!	!	!	!	!	!	!	!LO:LB:g=original	!
4E\	-bbe	4G/	/Mi	4G/	-cco-	4g\	Mi	.	.	4b\	Mi
4r	.	4c\	ra-	4A/	-rre-	2.e\	ra-	4r	.	2.ee\	ra-
4C/	Mi	4G/	-cco-	4E/	-bbe	.	.	4g\	Mi	.	.
=55-	=55-	=55-	=55-	=55-	=55-	=55-	=55-	=55-	=55-	=55-	=55-
4c\	ra-	4C/	-rre-	1r	.	.	.	4g\	ra-	.	.
4G\	-cco-	4G/	-bbe/	.	.	4B/	-cco-	4g\	-cce-	4dd\	-cco-
4A\	-rre-	2r	.	.	.	4c/	-rre-	4e\	-rre-	4cc\	-rre-
4E\	-bbe	.	.	.	.	4e\	-bbe	4g\	-bbe	4b\	-bbe
=56-	=56-	=56-	=56-	=56-	=56-	=56-	=56-	=56-	=56-	=56-	=56-
2F\	la	1r	.	1r	.	2c/	la	2f\	la	2a\	la
!LO:SIC:v:t=custos G	!	!	!	!	!	!	!	!	!	!	!
4C/	mia	.	.	.	.	4c/	mia	4e\	mia	4g\	mia
!LO:LB:g=original	!	!	!	!	!	!	!	!	!	!	!
2G\	Donn'	.	.	.	.	2B/	Donn'	2d\	Donn'	2g\	Donn
=57-	=57-	=57-	=57-	=57-	=57-	=57-	=57-	=57-	=57-	=57-	=57-
.	.	1r	.	2r	.	.	.	.	.	.	.
4A\	in	.	.	.	.	4c/	in	4c/	in	4f#X/	in
2G\	ſe-	.	.	4r	.	2d\	ſe-	2B/	ſe-	2g\	ſe-
.	.	.	.	4G/	/Mi	.	.	.	.	.	.
=58-	=58-	=58-	=58-	=58-	=58-	=58-	=58-	=58-	=58-	=58-	=58-
1C	-no	4r	.	4c\	ra-	1e	-no	1c	-no	2g\	-no
.	.	4C/	Mi	4G/	-cco-	.	.	.	.	.	.
.	.	4c\	ra-	4A/	-rre-	.	.	.	.	4r	.
.	.	4G/	-cco-	4E/	-bbe/	.	.	.	.	4g\	Mi
=59-	=59-	=59-	=59-	=59-	=59-	=59-	=59-	=59-	=59-	=59-	=59-
1C	la-	4A/	-rre-	4r	.	1c	la	1e	la	4cc\	ra-
!	!	!LO:SIC:v:t=custos G	!	!	!	!	!	!	!	!	!
.	.	4E/	-bbe	4G/	Mi	.	.	.	.	4g\	-cce-
.	.	2r	.	4c\	ra-	.	.	.	.	4a\	-rre-
!	!	!	!	!LO:SIC:v:t=custos A	!	!	!	!	!	!	!
.	.	.	.	4G/	-cco-	.	.	.	.	4e/	-bbe
=60-	=60-	=60-	=60-	=60-	=60-	=60-	=60-	=60-	=60-	=60-	=60-
!	!	!	!	!	!	!	!	!LO:SIC:v:t=custos d	!	!	!
!	!	!	!	!LO:LB:g=original	!	!	!	!	!	!	!
!	!	!LO:LB:g=original	!	!	!	!	!	!	!	!	!
2C/	-mia	4r	.	4A/	-rre-	2c/	mia	2e\	mia	4r	.
.	.	2G/	la	4E/	-bbe	.	.	.	.	2g\	la
!	!	!	!	!	!	!	!	!LO:LB:g=original	!	!	!
1GG/	Donn'	.	.	4.G/	la	1B/	Donn'	1d\	Donn'	.	.
.	.	4D/	mia	.	.	.	.	.	.	4g\	mia
.	.	.	.	8G/	mia	.	.	.	.	.	.
=61-	=61-	=61-	=61-	=61-	=61-	=61-	=61-	=61-	=61-	=61-	=61-
!	!	!	!	!	!	!	!	!	!	!LO:LB:g=original	!
.	.	2D/	Donn'	2G/	Donn'	.	.	.	.	2g\	Donn'
2AA/	in	2A\	in	2C/	in	2c/	in	1c\	in	2f#X/	in
=62-	=62-	=62-	=62-	=62-	=62-	=62-	=62-	=62-	=62-	=62-	=62-
1GG	ſe-	1D	ſe-	1G	ſe-	1d	ſe-	.	.	1g	ſe-
.	.	.	.	.	.	.	.	2B/	ſe-	.	.
=63-	=63-	=63-	=63-	=63-	=63-	=63-	=63-	=63-	=63-	=63-	=63-
0.C	-no.	0.C	-no.	0.G	-no.	0.e	-no.	0.c	-no	0.g	-no.
=64-	=64-	=64-	=64-	=64-	=64-	=64-	=64-	=64-	=64-	=64-	=64-
.	.	.	.	.	.	.	.	.	.	.	.
=65-	=65-	=65-	=65-	=65-	=65-	=65-	=65-	=65-	=65-	=65-	=65-
.	.	.	.	.	.	.	.	.	.	.	.
=-	=-	=-	=-	=-	=-	=-	=-	=-	=-	=-	=-
*-	*-	*-	*-	*-	*-	*-	*-	*-	*-	*-	*-
!!!system-decoration: [(s1,s2,s3,s4)]s5,s6
!!!ENC: Berenika Jozajtis
!!!END: 2022-06-12
!!!AIN: 2 alto 1 bass 1 soprn 2 tenor
!!!ENC: Urszula Świątek
!!!END: 2022-07-22
